html/dist/img/exp.svg

<svg width="55" height="65" viewBox="0 0 55 65" fill="none" xmlns="http://www.w3.org/2000/svg">
<path d="M43.7391 28.3397C44.2655 28.4451 44.7788 28.1125 44.8864 27.5958C45.1262 26.4418 45.2481 25.2548 45.2481 24.0678C45.2481 14.4117 37.2509 6.55713 27.4206 6.55713C17.5903 6.55713 9.59435 14.4117 9.59435 24.0665C9.59435 33.7213 17.5916 41.5772 27.4219 41.5772C34.1215 41.5772 40.1949 37.9412 43.2712 32.0899C43.5175 31.6215 43.3308 31.0451 42.8537 30.8026C42.3767 30.5602 41.7894 30.7442 41.5431 31.2127C38.8026 36.4267 33.3903 39.6665 27.4219 39.6665C18.6637 39.6665 11.5389 32.6676 11.5389 24.0652C11.5389 15.4629 18.665 8.4665 27.4219 8.4665C36.1788 8.4665 43.3049 15.4654 43.3049 24.0678C43.3049 25.1266 43.196 26.1854 42.9821 27.2124C42.8745 27.7291 43.2141 28.2331 43.7391 28.3397Z" fill="#7C7C7D"/>
<path d="M38.2413 20.5143C38.1272 20.1678 37.8212 19.9151 37.4544 19.8643L31.1165 18.9731L28.2943 13.3288C27.9715 12.6267 26.8709 12.628 26.5481 13.3288L23.7259 18.9731L17.388 19.8643C16.6089 19.9494 16.2693 20.9777 16.8488 21.4944L21.4418 25.8743L20.3463 32.0696C20.1869 32.8212 21.0762 33.4598 21.7581 33.0776L27.4193 30.1399L33.0805 33.0776C33.7611 33.4598 34.6529 32.8212 34.4922 32.0696L33.3968 25.8743L37.9898 21.4944C38.2594 21.2418 38.3553 20.8609 38.2413 20.5143ZM31.6765 24.8561C31.4458 25.0758 31.3407 25.3932 31.3952 25.7042L32.2391 30.4802L27.8756 28.2153C27.5917 28.0681 27.2507 28.0681 26.9668 28.2153L22.6033 30.4802L23.4472 25.7042C23.5017 25.3932 23.3967 25.0758 23.1659 24.8561L19.6243 21.4792L24.5102 20.7911C24.8278 20.7467 25.104 20.5499 25.2453 20.2668L27.4206 15.9148L29.5959 20.2668C29.7372 20.5499 30.0133 20.7467 30.3309 20.7911L35.2169 21.4792L31.6765 24.8561Z" fill="#E30613"/>
<path d="M54.7102 56.7747L45.2066 40.6047C49.3679 36.2896 51.9243 30.4662 51.9243 24.0665C51.9243 10.7961 40.9325 0 27.4218 0C23.2644 0 19.1588 1.04102 15.5459 3.01133C15.0766 3.26777 14.9068 3.84922 15.1673 4.31006C15.4279 4.7709 16.0203 4.93721 16.4896 4.68203C19.8148 2.86914 23.595 1.91064 27.4218 1.91064C39.8604 1.91064 49.9785 11.8498 49.9785 24.0678C49.9785 36.2845 39.8591 46.2249 27.4218 46.2249C14.9845 46.2249 4.86516 36.2857 4.86516 24.0678C4.86516 17.5132 7.79623 11.3318 12.9065 7.10684C13.3174 6.7666 13.3706 6.16484 13.0245 5.76113C12.6783 5.35742 12.0651 5.30537 11.6542 5.64561C6.10448 10.2324 2.92063 16.9482 2.92063 24.0665C2.92063 30.4764 5.48612 36.3086 9.6591 40.6263L6.96786 45.2055C6.32227 46.2655 8.02958 47.2456 8.65183 46.1602L11.0994 41.9974C14.0265 44.5707 17.585 46.4648 21.5169 47.4246L13.1256 61.7005L10.9788 55.0646C10.8271 54.5937 10.3345 54.3156 9.84318 54.421L2.91933 55.9127L6.38191 50.0208C6.65025 49.5638 6.4908 48.9798 6.02541 48.7157C5.56001 48.4517 4.96498 48.6078 4.69664 49.0648L0.133454 56.8331C-0.29953 57.5148 0.387541 58.4429 1.18351 58.2436L9.39335 56.4751L11.9381 64.3424C12.1611 65.1168 13.3187 65.2425 13.7063 64.5303L23.5237 47.8283C24.7928 48.0289 26.0943 48.1343 27.4205 48.1343C28.7571 48.1343 30.069 48.0264 31.3485 47.8232L37.2443 57.8551C37.4245 58.161 37.7512 58.3324 38.087 58.3324C38.2516 58.3324 38.4188 58.2905 38.5718 58.2042C39.0372 57.9401 39.1966 57.3562 38.9283 56.8991L33.3552 47.4183C37.2845 46.4547 40.8404 44.5567 43.765 41.9796L51.9217 55.8556L44.9978 54.3639C44.5065 54.2585 44.0152 54.5378 43.8622 55.0075L41.7155 61.6434L41.1969 60.7598C40.9286 60.3027 40.3336 60.1466 39.8682 60.4106C39.4028 60.6747 39.2433 61.2587 39.5117 61.7157L41.1321 64.4731C41.521 65.1854 42.6787 65.0584 42.9003 64.2853L45.4451 56.418L53.6549 58.1864C54.4561 58.3832 55.1432 57.4577 54.7102 56.7747Z" fill="#7C7C7D"/>
</svg>

<svg width="55" height="65" viewBox="0 0 55 65" fill="none" xmlns="http://www.w3.org/2000/svg"><path d="M43.74 28.34a.972.972 0 001.146-.744c.24-1.154.362-2.341.362-3.528 0-9.656-7.997-17.51-17.827-17.51-9.83 0-17.827 7.854-17.827 17.509 0 9.654 7.998 17.51 17.828 17.51 6.7 0 12.773-3.636 15.85-9.487a.948.948 0 00-.418-1.287.981.981 0 00-1.31.41c-2.741 5.214-8.154 8.453-14.122 8.453-8.758 0-15.883-6.998-15.883-15.6 0-8.603 7.126-15.6 15.883-15.6 8.757 0 15.883 7 15.883 15.602a15.46 15.46 0 01-.323 3.144.957.957 0 00.757 1.128z" fill="#7C7C7D"/><path d="M38.241 20.514a.966.966 0 00-.787-.65l-6.338-.89-2.822-5.645c-.323-.702-1.423-.701-1.746 0l-2.822 5.644-6.338.891c-.78.085-1.119 1.114-.54 1.63l4.594 4.38-1.096 6.196c-.16.751.73 1.39 1.412 1.008l5.661-2.938 5.662 2.938c.68.382 1.572-.257 1.411-1.008l-1.095-6.196 4.593-4.38a.938.938 0 00.251-.98zm-6.564 4.342a.945.945 0 00-.282.848l.844 4.776-4.363-2.265a.99.99 0 00-.91 0l-4.363 2.265.844-4.776a.945.945 0 00-.281-.848l-3.542-3.377 4.886-.688a.972.972 0 00.735-.524l2.176-4.352 2.175 4.352a.97.97 0 00.735.524l4.886.688-3.54 3.377z" fill="#E30613"/><path d="M54.71 56.775l-9.503-16.17c4.16-4.315 6.717-10.139 6.717-16.538C51.924 10.797 40.932 0 27.422 0a24.866 24.866 0 00-11.876 3.011.947.947 0 00-.379 1.3c.26.46.853.626 1.323.371a22.898 22.898 0 0110.932-2.771c12.438 0 22.556 9.939 22.556 22.157 0 12.216-10.119 22.157-22.556 22.157-12.438 0-22.557-9.94-22.557-22.157 0-6.555 2.931-12.736 8.041-16.961a.943.943 0 00.118-1.346.984.984 0 00-1.37-.115c-5.55 4.586-8.733 11.302-8.733 18.42 0 6.41 2.565 12.243 6.738 16.56l-2.691 4.58c-.646 1.06 1.062 2.04 1.684.954l2.447-4.163a24.621 24.621 0 0010.418 5.428L13.126 61.7l-2.147-6.636a.975.975 0 00-1.136-.644L2.92 55.913l3.463-5.892a.946.946 0 00-.357-1.305.982.982 0 00-1.328.349L.133 56.833c-.433.682.255 1.61 1.05 1.41l8.21-1.768 2.545 7.867c.223.775 1.38.9 1.768.188l9.818-16.702a24.946 24.946 0 007.825-.005l5.895 10.032a.976.976 0 001.328.35.946.946 0 00.356-1.306l-5.573-9.48a24.614 24.614 0 0010.41-5.44l8.157 13.877-6.924-1.492a.976.976 0 00-1.136.644l-2.147 6.635-.518-.883a.982.982 0 00-1.329-.35.946.946 0 00-.356 1.306l1.62 2.757c.389.712 1.547.585 1.768-.188l2.545-7.867 8.21 1.768c.801.197 1.488-.728 1.055-1.411z" fill="#7C7C7D"/></svg>
